Gem.Ruby.Red-4.svg

<svg height="100%" stroke-miterlimit="10" style="fill-rule:nonzero;clip-rule:evenodd;stroke-linecap:round;stroke-linejoin:round;" version="1.1" viewBox="0 0 100 100" width="100%" xml:space="preserve" xmlns="http://www.w3.org/2000/svg" xmlns:vectornator="http://vectornator.io" xmlns:xlink="http://www.w3.org/1999/xlink">
<defs>
<linearGradient gradientTransform="matrix(0.999219 0 0 0.999219 0.0390364 0.0390364)" gradientUnits="userSpaceOnUse" id="LinearGradient" x1="23.7798" x2="74.0929" y1="60.5713" y2="60.1315">
<stop offset="0" stop-color="#e60726" stop-opacity="0.9"/>
<stop offset="0.436896" stop-color="#970000"/>
<stop offset="0.49595" stop-color="#8a0101"/>
<stop offset="0.553571" stop-color="#8a0101"/>
<stop offset="0.610846" stop-color="#8d0000"/>
<stop offset="0.6661" stop-color="#960000"/>
<stop offset="1" stop-color="#ea0621" stop-opacity="0.914622"/>
</linearGradient>
<filter color-interpolation-filters="sRGB" filterUnits="userSpaceOnUse" height="101.997" id="Filter" width="79.9033" x="9.7504" y="-0.179794">
<feDropShadow dx="-0.297945" dy="0.818576" flood-color="#000000" flood-opacity="0.55" in="SourceGraphic" result="Shadow" stdDeviation="1.25167"/>
</filter>
<linearGradient gradientTransform="matrix(1 0 0 1 0 0)" gradientUnits="userSpaceOnUse" id="LinearGradient_2" x1="74.7576" x2="29.4806" y1="45.294" y2="47.2773">
<stop offset="0" stop-color="#e60726" stop-opacity="0.9"/>
<stop offset="0.436896" stop-color="#970000"/>
<stop offset="0.49595" stop-color="#8a0101"/>
<stop offset="0.553571" stop-color="#8a0101"/>
<stop offset="0.610846" stop-color="#8d0000"/>
<stop offset="0.6661" stop-color="#960000"/>
<stop offset="1" stop-color="#ea0621" stop-opacity="0.914622"/>
</linearGradient>
<filter color-interpolation-filters="sRGB" filterUnits="userSpaceOnUse" height="94.6321" id="Filter_2" width="65.1741" x="17.1149" y="5.61707">
<feDropShadow dx="-0.297945" dy="0.818576" flood-color="#000000" flood-opacity="0.55" in="SourceGraphic" result="Shadow" stdDeviation="1.25167"/>
</filter>
</defs>
<g opacity="1">
<path d="M35.2597 33.699L24.9841 23.4416L32.3954 16.0927L42.6253 26.3064L42.6453 13.1442L57.3909 13.1849L57.3741 26.2876L67.6338 16.0345L75.0815 23.4856L64.7909 33.7209L75.8063 39.1999L75.7946 65.0582L64.8007 70.4956L72.9674 78.6653L65.5931 86.1199L57.3794 77.9936L57.4078 86.8826L42.5771 86.9009L42.6126 77.975L34.5114 86.0356L27.0514 78.6521L35.3016 70.5234L24.2566 65.0693L24.2165 39.216L35.2597 33.699Z" fill="url(#LinearGradient)" fill-rule="nonzero" opacity="0.627691" stroke="none"/>
<path d="M30.9553 2.13079L69.0445 2.13079C70.996 2.13079 72.8704 2.90774 74.2512 4.28859L84.6644 14.7019C86.0452 16.0828 86.8225 17.9571 86.8225 19.9086L86.8225 80.0875C86.8225 82.0389 86.0452 83.9133 84.6644 85.2941L74.2512 95.7074C72.8704 97.092 70.996 97.8692 69.0445 97.8692L31.4488 97.8692C29.21 97.8692 27.0964 96.8529 25.6971 95.1039L14.794 81.472C13.7482 80.1687 13.1775 78.5484 13.1775 76.8727L13.1775 19.9086C13.1775 17.9571 13.9545 16.0828 15.3353 14.7019L25.7487 4.28859C27.1295 2.90774 29.0038 2.13079 30.9553 2.13079ZM24.2242 75.7756L35.2709 86.8224L64.7289 86.8224L75.7757 75.7756L75.7757 24.2242L64.7289 13.1775L35.2709 13.1775L24.2242 24.2242L24.2242 75.7756Z" fill="#7f0101" fill-opacity="0.9" fill-rule="nonzero" filter="url(#Filter)" stroke="none" shadowAngle="1.91987" shadowColor="#000000" shadowOffset="0.871113" shadowOpacity="0.55" shadowRadius="2.50333"/>
<path d="M64.7289 33.7033L57.3646 26.3388L42.6352 26.3388L35.2709 33.7033L35.2709 70.5256L42.6352 77.8903L57.3646 77.8903L64.7289 70.5256L64.7289 33.7033ZM42.6352 26.3388L27.9065 11.6099L42.6352 7.92766L42.6352 26.3388ZM35.2709 33.7033L20.542 18.9744L20.542 41.0678L35.2709 33.7033ZM79.4578 18.9744L64.7289 33.7033L79.4578 41.0678L79.4578 18.9744ZM64.7289 70.5256L79.4578 85.2546L79.4578 63.1613L64.7289 70.5256ZM20.542 85.2546L35.2709 70.5256L20.542 63.1613L20.542 85.2546ZM57.3646 7.92766L72.0935 11.6099L57.3646 26.3388L57.3646 7.92766ZM57.3646 77.8903L72.0935 92.6192L57.3646 96.3014L57.3646 77.8903ZM42.6352 96.3014L27.9065 92.6192L42.6352 77.8903L42.6352 96.3014Z" fill="url(#LinearGradient_2)" fill-rule="nonzero" filter="url(#Filter_2)" stroke="none" shadowAngle="1.91987" shadowColor="#000000" shadowOffset="0.871113" shadowOpacity="0.55" shadowRadius="2.50333"/>
</g>
</svg>

<svg width="100%" height="100%" viewBox="0 0 100 100" xmlns="http://www.w3.org/2000/svg" xml:space="preserve" stroke-linecap="round" stroke-linejoin="round" stroke-miterlimit="10" clip-rule="evenodd"><defs><linearGradient id="a" x1="23.78" x2="74.093" y1="60.571" y2="60.132" gradientTransform="translate(.039 .039)scale(.99922)" gradientUnits="userSpaceOnUse"><stop offset="0" stop-color="#e60726" stop-opacity=".9"/><stop offset=".437" stop-color="#970000"/><stop offset=".496" stop-color="#8a0101"/><stop offset=".554" stop-color="#8a0101"/><stop offset=".611" stop-color="#8d0000"/><stop offset=".666" stop-color="#960000"/><stop offset="1" stop-color="#ea0621" stop-opacity=".915"/></linearGradient><linearGradient id="c" x1="74.758" x2="29.481" y1="45.294" y2="47.277" gradientUnits="userSpaceOnUse"><stop offset="0" stop-color="#e60726" stop-opacity=".9"/><stop offset=".437" stop-color="#970000"/><stop offset=".496" stop-color="#8a0101"/><stop offset=".554" stop-color="#8a0101"/><stop offset=".611" stop-color="#8d0000"/><stop offset=".666" stop-color="#960000"/><stop offset="1" stop-color="#ea0621" stop-opacity=".915"/></linearGradient><filter id="b" width="79.903" height="101.997" x="9.75" y="-.18" color-interpolation-filters="sRGB" filterUnits="userSpaceOnUse"><feDropShadow dx="-.298" dy=".819" flood-color="#000" flood-opacity=".55" in="SourceGraphic" result="Shadow" stdDeviation="1.252"/></filter><filter id="d" width="65.174" height="94.632" x="17.115" y="5.617" color-interpolation-filters="sRGB" filterUnits="userSpaceOnUse"><feDropShadow dx="-.298" dy=".819" flood-color="#000" flood-opacity=".55" in="SourceGraphic" result="Shadow" stdDeviation="1.252"/></filter></defs><g><path fill="url(#a)" d="M35.26 33.699 24.984 23.442l7.411-7.35 10.23 10.214.02-13.162 14.746.04-.017 13.104 10.26-10.253 7.448 7.45L64.79 33.722 75.806 39.2l-.011 25.858L64.8 70.496l8.166 8.17-7.374 7.454-8.214-8.126.029 8.889-14.83.018.035-8.926-8.102 8.06-7.46-7.383 8.25-8.129-11.044-5.454-.04-25.853z" opacity=".628"/><path fill="#7f0101" fill-opacity=".9" d="M30.955 2.13h38.09c1.951 0 3.825.778 5.206 2.159l10.413 10.413a7.37 7.37 0 0 1 2.159 5.207v60.179a7.37 7.37 0 0 1-2.159 5.206L74.251 95.707a7.36 7.36 0 0 1-5.207 2.162H31.45a7.36 7.36 0 0 1-5.752-2.765L14.794 81.472a7.35 7.35 0 0 1-1.617-4.6V19.91c0-1.952.777-3.826 2.158-5.207L25.75 4.289a7.37 7.37 0 0 1 5.206-2.158m-6.73 73.646L35.27 86.822h29.458l11.047-11.046V24.224L64.729 13.178H35.27L24.224 24.224z" filter="url(#b)"/><path fill="url(#c)" d="m64.729 33.703-7.364-7.364h-14.73l-7.364 7.364v36.823l7.364 7.364h14.73l7.364-7.364zM42.635 26.34l-14.728-14.73 14.728-3.681zm-7.364 7.364L20.542 18.974v22.094zm44.187-14.729-14.73 14.73 14.73 7.364zm-14.73 51.552 14.73 14.729V63.16zM20.543 85.255l14.729-14.73-14.729-7.364zM57.365 7.928l14.729 3.682-14.73 14.729zm0 69.962 14.729 14.73-14.73 3.681zm-14.73 18.411L27.907 92.62 42.635 77.89z" filter="url(#d)"/></g></svg>
